usr/share/icons/biglinux-icons-material/32/actions/mail-reply-sender.svg

<svg version="1.1" viewBox="0 0 32 32" xmlns="http://www.w3.org/2000/svg">
 <defs>
  <style id="current-color-scheme" type="text/css">.ColorScheme-Text {
        color:#dedede;
      }</style>
 </defs>
 <path class="ColorScheme-Text" d="m6.5159 16 0.72852 0.72656-4.2402 4.2285 8.9961 0.04492v1l-9.0605-0.01758 4.3047 4.291-0.72852 0.72656-5.5156-5.5z" fill="currentColor"/>
 <path class="ColorScheme-Text" d="m26 5c2.1263 0 3.8499 1.6437 3.9863 3.7344l0.01367-0.011719v14.557l-0.01367-0.01172c-0.13738 2.0897-1.8607 3.7324-3.9863 3.7324h-14v-1h14c1.662 0 3-1.338 3-3v-0.49609l-7.5801-5.8809-3.6035 2.7949c-0.99892 0.7749-2.6339 0.7749-3.6328 0l-3.6035-2.7949-0.80273-0.62305-6.7773-5.2578v5.2575h-1v-7.2809l0.01367 0.011719c0.13833-2.0888 1.8613-3.7305 3.9863-3.7305zm0 1h-20c-1.662 0-3 1.338-3 3v0.49414l11.988 9.3008c0.56803 0.44064 1.4574 0.44255 2.0254 2e-3l11.986-9.2989v-0.49805c0-1.662-1.338-3-3-3zm3 4.7422-6.7773 5.2578 6.7773 5.2578z" fill="currentColor"/>
</svg>

<svg xmlns="http://www.w3.org/2000/svg" viewBox="0 0 32 32"><defs><style id="current-color-scheme" type="text/css">.ColorScheme-Text{color:#dedede}</style></defs><path fill="currentColor" d="m6.516 16 .728.727-4.24 4.228L12 21v1l-9.06-.018 4.305 4.291-.729.727L1 21.5z" class="ColorScheme-Text"/><path fill="currentColor" d="M26 5a3.987 3.987 0 0 1 3.986 3.734L30 8.723V23.28l-.014-.012A3.987 3.987 0 0 1 26 27H12v-1h14c1.662 0 3-1.338 3-3v-.496l-7.58-5.88-3.604 2.794c-.999.775-2.634.775-3.632 0l-3.604-2.795L9.777 16 3 10.743V16H2V8.72l.014.01A3.987 3.987 0 0 1 6 5zm0 1H6C4.338 6 3 7.338 3 9v.494l11.988 9.3c.568.442 1.457.443 2.025.003L29 9.498V9c0-1.662-1.338-3-3-3zm3 4.742L22.223 16 29 21.258z" class="ColorScheme-Text"/></svg>
